web/public/background.svg

<svg style="object-fit:cover" version="1" baseProfile="full" viewBox="0 0 1920 969" xmlns="http://www.w3.org/2000/svg"><path fill="#fff" d="M0 0H1920V969H0z"/><path d="M0 969V0v678c348.5 115.5 697 231 1017 231s611.5-115.5 903-231v291z" fill="#f5df4d90" class="transition-all duration-300 ease-in-out delay-150" style="transform-origin:center center"/><path d="M0 969V0v1017c278.5-76.5 557-153 877-153s681.5 76.5 1043 153v-48z" fill="#f5df4dff" class="transition-all duration-300 ease-in-out delay-150" style="transform-origin:center center"/></svg>

<svg style="object-fit:cover" id="my-svg" version="1" baseProfile="full" width="100%" height="100%" viewBox="0 0 1920 969" xmlns="http://www.w3.org/2000/svg"><rect width="1920" height="969" fill="#ffffff"/><path transform="scale(1, 1)" d="M 0,969 V 0,678 C 348.5,793.5 697,909 1017,909 C 1337,909 1628.5,793.5 1920,678 C 1920,678 1920,969 1920,969 Z" stroke="none" stroke-width="0" fill="#f5df4d90" class="transition-all duration-300 ease-in-out delay-150" style="transform-origin: center center;"/><path transform="scale(1, 1)" d="M 0,969 V 0,1017 C 278.5,940.5 557,864 877,864 C 1197,864 1558.5,940.5 1920,1017 C 1920,1017 1920,969 1920,969 Z" stroke="none" stroke-width="0" fill="#f5df4dff" class="transition-all duration-300 ease-in-out delay-150" style="transform-origin: center center;"/></svg>
